source/images/icons/icon-editorial/sports.svg

<?xml version="1.0" encoding="UTF-8"?>
<svg width="80px" height="80px" viewBox="0 0 80 80" version="1.1" xmlns="http://www.w3.org/2000/svg" xmlns:xlink="http://www.w3.org/1999/xlink">
    <!-- Generator: Sketch 55.2 (78181) - https://sketchapp.com -->
    <title>Illustrative Icons/Sports</title>
    <desc>Created with Sketch.</desc>
    <g id="Illustrative-Icons/Sports" stroke="none" stroke-width="1" fill="none" fill-rule="evenodd">
        <path d="M57.8127545,73.5120534 C54.4247092,73.5120534 51.3702725,71.4762335 50.0737237,68.3538935 C48.7771749,65.2315535 49.4938469,61.6375848 51.8895567,59.2478493 C54.2852665,56.8581138 57.8882202,56.143229 61.018366,57.4365445 C64.1485119,58.72986 66.1894212,61.7766797 66.1894212,65.156276 C66.1848276,69.769145 62.4371557,73.507471 57.8127545,73.5120534 Z M57.8127545,60.1271822 C55.772765,60.1271822 53.9336772,61.3530667 53.1531629,63.2331355 C52.3726484,65.1132045 52.8044402,67.277153 54.247169,68.7158084 C55.6898979,70.1544639 57.8593987,70.5844635 59.7439097,69.8052742 C61.6284209,69.0260849 62.856762,67.1911782 62.8560882,65.156276 C62.8542492,62.378626 60.5973487,60.1273537 57.8127545,60.1255197 L57.8127545,60.1271822 Z M46.2703957,51.1979515 L20.8209751,36.651729 C21.8600714,40.3959897 23.9573119,43.8826865 27.0560878,46.6325853 C27.6773867,47.1816907 27.7988975,48.103153 27.3410878,48.7938488 L16.9194212,64.6408979 C16.2150125,65.7100219 16.1359088,67.0727935 16.7119077,68.21587 C17.2879066,69.3589465 18.4315001,70.1086674 19.7119077,70.1826199 C20.9923153,70.2565724 22.2150125,69.6435214 22.9194212,68.5743974 L22.9544212,68.524522 L25.7210878,64.6408979 C26.0661468,64.1568222 26.6438914,63.8931457 27.2366907,63.9491925 C27.82949,64.0052394 28.3472838,64.3724949 28.5950241,64.9126174 C28.8427644,65.4527399 28.7828135,66.0836719 28.4377545,66.5677474 L25.6877545,70.4280965 C24.6815994,71.946579 23.1121664,73.0044107 21.3244212,73.3690774 C20.8566164,73.4646855 20.380277,73.5120578 19.9027545,73.5120578 C17.3618414,73.5045164 15.0292316,72.1091884 13.825783,69.8769112 C12.6223345,67.644634 12.7414431,64.934138 14.1360878,62.8154614 L23.7910878,48.1321697 C19.273197,43.6115267 16.7346653,37.4896493 16.7310878,31.1064006 C16.7310878,17.8146301 27.5644212,7 40.8977545,7 C54.2310879,7 65.0644212,17.8146301 65.0644212,31.1064006 C65.0644212,44.3981713 54.2310879,55.2128013 40.8977545,55.2128013 C39.2745519,55.2133672 37.6553688,55.0518527 36.0644212,54.7306733 L34.3627545,57.7680798 C33.9070108,58.5548642 32.9024203,58.8308908 32.1070752,58.3878623 C31.31173,57.9448338 31.0203213,56.9469012 31.4527545,56.1471322 L33.5294212,52.439734 C33.5477545,52.4048213 33.5694212,52.3715712 33.5910878,52.3383208 C33.6494212,52.2485453 33.7044212,52.1554448 33.7577545,52.0490442 C34.1189407,51.3690017 34.9008132,51.0251203 35.6477545,51.2177888 C39.2449649,52.1549642 42.8893482,52.09578 46.2703957,51.1979515 Z M50.2992127,49.6693602 C54.7482305,47.433984 58.3965985,43.6164058 60.336041,38.6779627 C64.191136,28.8616533 60.0751385,17.7206326 50.7560502,12.7472183 C41.4369617,7.77380393 29.8614822,10.5405918 23.8141022,19.1869217 C21.0178428,23.1849142 19.8123626,27.855449 20.1050545,32.414545 C20.1466464,32.4349663 20.1875852,32.4572175 20.2277545,32.4812968 L50.2992175,49.6693602 Z M31.7877545,61.2793018 C31.7877545,62.197481 31.0415623,62.9418122 30.1210878,62.9418122 C29.2006133,62.9418122 28.4544212,62.197481 28.4544212,61.2793018 C28.4544212,60.3611227 29.2006133,59.6167913 30.1210878,59.6167913 C31.0415623,59.6167913 31.7877545,60.3611227 31.7877545,61.2793018 Z" id="Shape-color" fill="#ADB5BD"></path>
    </g>
</svg>

<svg width="80" height="80">
    <title>
        Illustrative Icons/Sports
    </title>
    <path d="M57.813 73.512a8.377 8.377 0 0 1-7.74-5.158 8.34 8.34 0 0 1 1.817-9.106 8.392 8.392 0 0 1 9.128-1.811 8.356 8.356 0 0 1 5.171 7.72c-.004 4.612-3.752 8.35-8.376 8.355zm0-13.385a5.043 5.043 0 0 0-4.66 3.106 5.022 5.022 0 0 0 1.094 5.483 5.053 5.053 0 0 0 5.497 1.09 5.03 5.03 0 0 0 3.112-4.65 5.04 5.04 0 0 0-5.043-5.03v.001zM46.27 51.198L20.821 36.652a20.726 20.726 0 0 0 6.235 9.98c.621.55.743 1.471.285 2.162L16.92 64.64a3.573 3.573 0 0 0-.207 3.575 3.593 3.593 0 0 0 6.208.359l.034-.05 2.767-3.884a1.668 1.668 0 0 1 2.874.272 1.66 1.66 0 0 1-.157 1.655l-2.75 3.86a6.884 6.884 0 0 1-4.364 2.941 6.926 6.926 0 0 1-7.499-3.492 6.891 6.891 0 0 1 .311-7.062l9.655-14.683a24.104 24.104 0 0 1-7.06-17.026C16.731 17.815 27.564 7 40.898 7 54.23 7 65.064 17.815 65.064 31.106c0 13.292-10.833 24.107-24.166 24.107-1.623 0-3.243-.161-4.834-.482l-1.701 3.037a1.669 1.669 0 0 1-2.256.62 1.66 1.66 0 0 1-.654-2.24l2.076-3.708c.019-.035.04-.068.062-.102.058-.09.113-.183.167-.289a1.668 1.668 0 0 1 1.89-.831c3.597.937 7.241.878 10.622-.02zm4.03-1.529a20.775 20.775 0 0 0 10.036-10.991c3.855-9.816-.26-20.957-9.58-25.93-9.319-4.974-20.895-2.207-26.942 6.439a20.707 20.707 0 0 0-3.709 13.228c.042.02.083.042.123.066L50.299 49.67zM31.787 61.28c0 .918-.746 1.663-1.667 1.663-.92 0-1.667-.745-1.667-1.663s.747-1.662 1.667-1.662 1.667.744 1.667 1.662z" fill="#ADB5BD" fill-rule="evenodd"/>
</svg>
